!!! OTL: Literature9
!!! Chapter: 5
!!! Section: I
!!! Page: 346
!!! Mode: 
!!! Encoder: DJB
**kern
*staff1
*I"Piano
=1-
*clefG2
*k[f#]
*G:
*met(c)
*M4/4
4r
4r
4r
4d/
=2
4g/
4g/
4a/
4dd\
=3
2b\
4b\
4cc\
=4
4a/
4g/
4a/
4f#/
=5
2g/
4r
4d/
=6
4g/
4g/
4a/
4dd\
=7
2b\
4b\
4cc\
=8
4a/
4g/
4a/
4f#/
=9
2g/
4r
8g/L
8a/J
=10
!!linebreak:original
4b\
4b\
4b\
8a/L
8b/J
=11
2cc\
4cc\
4cc\
=12
4b\
4a/
4g/
8cc\L
8b\J
=13
2a/
4r
4d/
=14
4g/
4g/
4a/
4dd\
=15
2b\
4b\
4cc\
=16
4a/
4g/
4a/
4f#/
=17
2.g/
4r
==
*-
